X: 149
T:Missa Sine nomine / Gloria
N: Derived from Jos1202b-Missa_Sine_nomine-Gloria.krn
C: Josquin des Prez
%%abc-version 2.0
%%abcx-abcm2ps-target-version 5.9.1 (29 Sep 2008)
%%abc-creator hum2abc beta
%%abcx-conversion-date 2019/02/12 16:15:45
%%abc-edited-by Jesse Rodin
%%abc-edited-by Jesse Rodin; Victoria Chang 2011/04/06; JR 2013/02 (text)
%%abcx-initial-encoding-date 2013/03/08/
%%humdrum-veritas 3334189077
%%humdrum-veritas-data 3895797379
%%linebreak <none>
%%barnumbers 0
L: 1/4
M: 3/1
Q: 1/2=120
%%staves [1 2 3 4]
V: 1 clef=treble
V: 2 clef=treble-8
V: 3 clef=treble-8
V: 4 clef=bass
K: C
[V:1] z12 | 
[V:2] d4d4G4 | 
[V:3] z12 | 
[V:4] z12 | 
[V:1] A4A4D4 | 
[V:2] d3cA2c2B4 | 
[V:3] z12 | 
[V:4] z12 | 
[V:1] A3GE2G2F4 | 
[V:2] A4z2G2A2B2 | 
[V:3] z12 | 
[V:4] z12 | 
[V:1] E8z4 | 
[V:2] c2d4^c2d4 | 
[V:3] z12 | 
[V:4] A,4A,4D,4 | 
[V:1] z12 | 
[V:2] z12 | 
[V:3] e4e4A4 | 
[V:4] A,3G,E,2G,2F,4 | 
[V:1] z12 | 
[V:2] z12 | 
[V:3] e3dB2d2c4 | 
[V:4] E,4z2D,2E,2F,2 | 
[V:1] z12 | 
[V:2] z12 | 
[V:3] B4z2A2B2c2 | 
[V:4] G,2D,2E,2F,2G,2A,2 | 
[V:1] z12 | 
[V:2] z12 | 
[V:3] d2A2B2c2d2e2 | 
[V:4] D,4z2A,2G,2E,2 | 
[V:1] z12 | 
[V:2] z12 | 
[V:3] A4z2e2d2B2 | 
[V:4] F,4E,4z2G,2 | 
[V:1] z12 | 
[V:2] z12 | 
[V:3] c4B4z2d2 | 
[V:4] A,2A,2G,2E,2F,4 | 
[V:1] G4F2G2E4 | 
[V:2] z12 | 
[V:3] e2e2d2B2c4 | 
[V:4] E,4z4z4 | 
[V:1] D4z2A2B2G2 | 
[V:2] d4c2d2B4 | 
[V:3] B4z4z4 | 
[V:4] z12 | 
[V:1] A2c2B4A2d2 | 
[V:2] A4z2e2f2d2 | 
[V:3] z12 | 
[V:4] z12 | 
[V:1] c2B2A2c2B4 | 
[V:2] e2g2f2e2g4 | 
[V:3] z12 | 
[V:4] z12 | 
[V:1] z2A4GFE2F2 | 
[V:2] e2f4edc2A2 | 
[V:3] z12 | 
[V:4] A,4A,2A,2A,2A,2 | 
[V:1] G2E2A4G4 | 
[V:2] B2c2A4B4- | 
[V:3] e4e2e2e2e2 | 
[V:4] G,2A,4G,F,E,4 | 
[V:1] G6A2B4 | 
[V:2] B4z4d4 | 
[V:3] d2e4dcB4 | 
[V:4] z2E,4F,2G,4 | 
[V:1] E2G4E2A4 | 
[V:2] c2e2d2c2A4 | 
[V:3] z2B4c2d4 | 
[V:4] A,2E,2G,2A,2F,4 | 
[V:1] G6G2E3F | 
[V:2] B6G2A4 | 
[V:3] e2B2d2e2c4 | 
[V:4] E,4z4z4 | 
[V:1] G8z2D2 | 
[V:2] G4z2G2A2B2 | 
[V:3] B4z4z4 | 
[V:4] z12 | 
[V:1] E2F2G2E2FEA2- | 
[V:2] c2A2B2c2A4 | 
[V:3] z12 | 
[V:4] z12 | 
[V:1] A2^G2A2c2B2A2- | 
[V:2] B4A4d4 | 
[V:3] z12 | 
[V:4] z12 | 
[V:1] AGF2E4F4 | 
[V:2] d4c4z2A2 | 
[V:3] z12 | 
[V:4] z12 | 
[V:1] D3EF2D2E4 | 
[V:2] B4A2d4^c2 | 
[V:3] z12 | 
[V:4] G,4F,2G,2E,4 | 
[V:1] F3GA4z2G2 | 
[V:2] d4e2f2d2e2- | 
[V:3] d4c2d2B4 | 
[V:4] D,4z4G,4 | 
[V:1] A2F2G4F4 | 
[V:2] edd4^c2d4 | 
[V:3] A4z4d4 | 
[V:4] F,2D,2E,4D,4 | 
[V:1] c4B2G2A4 | 
[V:2] e2f3ee4d2 | 
[V:3] c2A2B4A4 | 
[V:4] A,4G,2E,2F,4 | 
[V:1] G2c3BB4A2 | 
[V:2] e2E2F2G2E2F2 | 
[V:3] e4d2B2c4 | 
[V:4] E,4z4z4 | 
[V:1] B2G2A2G2A4 | 
[V:2] GEe2A2e3cd2 | 
[V:3] B4z4z4 | 
[V:4] z2E,2F,2E,2F,4 | 
[V:1] G4z2G2E3F | 
[V:2] e2E3FG2C3D | 
[V:3] z2B2c2B2c4 | 
[V:4] E,4z4z4 | 
[V:1] G4A2G2A4 | 
[V:2] E2e2A2e4d2 | 
[V:3] B4z4z4 | 
[V:4] z2E,2F,2E,2F,4 | 
[V:1] G4z2G2E3F | 
[V:2] e2E3FG2C3D | 
[V:3] z2B2c2B2c4 | 
[V:4] E,4z4z4 | 
[V:1] G4A2G2A4 | 
[V:2] E2e2A2e3ddc | 
[V:3] B4z4z4 | 
[V:4] z2E,2F,2E,2F,4 | 
[V:1] G12- | 
[V:2] e12- | 
[V:3] z2B2c2B2c4 | 
[V:4] E,12- | 
[V:1] G12 ||  
[V:2] e12 ||  
[V:3] B12 ||  
[V:4] E,12 ||  
[V:1]  [K:C] [K:clef=treble][M:2/1]E8 | 
[V:2]  [K:C] [K:clef=treble-8][M:2/1]z8 | 
[V:3]  [K:C] [K:clef=treble-8][M:2/1]z8 | 
[V:4]  [K:C] [K:clef=bass][M:2/1]z8 | 
[V:1] A4A4 | 
[V:2] A8 | 
[V:3] z8 | 
[V:4] z8 | 
[V:1] F4F4 | 
[V:2] d4d4 | 
[V:3] z8 | 
[V:4] z8 | 
[V:1] G4G4 | 
[V:2] B4B4 | 
[V:3] z8 | 
[V:4] z8 | 
[V:1] E4A4- | 
[V:2] c4c4 | 
[V:3] z8 | 
[V:4] z8 | 
[V:1] A2G2F3E | 
[V:2] A4d4- | 
[V:3] z8 | 
[V:4] D,8 | 
[V:1] D4G4- | 
[V:2] d2c2B3A | 
[V:3] z8 | 
[V:4] G,4G,4 | 
[V:1] G2F2E3D | 
[V:2] G4c4- | 
[V:3] z8 | 
[V:4] E,4E,4 | 
[V:1] C4z2F2- | 
[V:2] c2BAA2d2- | 
[V:3] A8 | 
[V:4] F,4F,4 | 
[V:1] FDG4F2 | 
[V:2] d2B2A4 | 
[V:3] d4d4 | 
[V:4] D,8 | 
[V:1] G6E2 | 
[V:2] G4z2G2 | 
[V:3] B4B4 | 
[V:4] z8 | 
[V:1] E8 | 
[V:2] A3Bc2A2- | 
[V:3] c4c4 | 
[V:4] z4A,4 | 
[V:1] z4c4- | 
[V:2] ABcde4 | 
[V:3] A8 | 
[V:4] C6B,2 | 
[V:1] c2B2A4 | 
[V:2] z2e4d2 | 
[V:3] z8 | 
[V:4] A,2G,2F,4 | 
[V:1] G3AB2c2 | 
[V:2] e2E2G3A | 
[V:3] z4e4 | 
[V:4] E,8 | 
[V:1] B2e4d2 | 
[V:2] B2EFGAB2 | 
[V:3] g6f2 | 
[V:4] z8 | 
[V:1] c2B4A2 | 
[V:2] c2G2A4 | 
[V:3] e2d2c4 | 
[V:4] z8 | 
[V:1] B4z2B2 | 
[V:2] E8 | 
[V:3] B8 | 
[V:4] G,8 | 
[V:1] c4c4 | 
[V:2] z4e4 | 
[V:3] z8 | 
[V:4] A,4A,4 | 
[V:1] A4A4 | 
[V:2] f3ec2d2- | 
[V:3] z8 | 
[V:4] F,4F,4 | 
[V:1] B4B4 | 
[V:2] dcB3GG2- | 
[V:3] d8 | 
[V:4] G,4G,4 | 
[V:1] G4z2G2- | 
[V:2] G2g3fed | 
[V:3] e4e4 | 
[V:4] E,8 | 
[V:1] GFEDE4 | 
[V:2] edcBA4 | 
[V:3] c4c4 | 
[V:4] z8 | 
[V:1] D4z2d2- | 
[V:2] B6G2 | 
[V:3] d4d4 | 
[V:4] z4G,4- | 
[V:1] d2d2d4 | 
[V:2] G4g3f | 
[V:3] B8 | 
[V:4] G,2G,2G,4 | 
[V:1] c4c4 | 
[V:2] edc4BA | 
[V:3] z8 | 
[V:4] A,4A,4 | 
[V:1] d6c2 | 
[V:2] G8 | 
[V:3] z4d4- | 
[V:4] _B,6A,2 | 
[V:1] B2G2A4 | 
[V:2] z4A4 | 
[V:3] d2d2d4 | 
[V:4] G,4F,4 | 
[V:1] G4z2G2 | 
[V:2] B4c4 | 
[V:3] e4e4 | 
[V:4] E,8 | 
[V:1] A2D2F2G2 | 
[V:2] d6e2 | 
[V:3] f6e2 | 
[V:4] D,8 | 
[V:1] A2B2c2A2- | 
[V:2] f4e4 | 
[V:3] d4c4 | 
[V:4] z8 | 
[V:1] A2GFG4 | 
[V:2] d2G2d3e | 
[V:3] B8 | 
[V:4] z8 | 
[V:1] A8 | 
[V:2] f4z2A2 | 
[V:3] A8 | 
[V:4] D,4F,4 | 
[V:1] z8 | 
[V:2] c4B2B2 | 
[V:3] z8 | 
[V:4] E,2E,2G,2G,2 | 
[V:1] z8 | 
[V:2] d2d2A4 | 
[V:3] z8 | 
[V:4] D,4F,4- | 
[V:1] z4E4 | 
[V:2] c3de2E2- | 
[V:3] A4c4 | 
[V:4] F,4E,4 | 
[V:1] G4F2F2 | 
[V:2] EFG2D3E | 
[V:3] B2B2d2d2 | 
[V:4] z8 | 
[V:1] A2A2E3F | 
[V:2] FGA3GA2 | 
[V:3] A4c4- | 
[V:4] z8 | 
[V:1] G8 | 
[V:2] E2e3de2 | 
[V:3] c4B4 | 
[V:4] E,4E,4 | 
[V:1] z2A2B2c2- | 
[V:2] c2f4e2 | 
[V:3] z8 | 
[V:4] F,3D,D,2A,2- | 
[V:1] cBG2A4 | 
[V:2] f2e4d2 | 
[V:3] z8 | 
[V:4] A,G,E,2F,4 | 
[V:1] G8 | 
[V:2] e8- | 
[V:3] B4B4 | 
[V:4] E,8 | 
[V:1] z2G2A2c2- | 
[V:2] e8 | 
[V:3] c3AA2e2- | 
[V:4] z8 | 
[V:1] cBB4A2 | 
[V:2] [M:3/1](3e4e4e4 | 
[V:3] edB2c4 | 
[V:4] z8 | 
[V:1] [M:3/3](3:2:2B8z4 | 
[V:2] (3:2:2d8d4 | 
[V:3] B8 | 
[V:4] [M:3/1](3G,4G,4G,4 | 
[V:1] (3G4G4G4 | 
[V:2] (3e6d2B4 | 
[V:3] z8 | 
[V:4] (3:2:2E,8E,4 | 
[V:1] (3:2:2E8A4 | 
[V:2] (3:2:2c8A4 | 
[V:3] z8 | 
[V:4] (3:2:4A,6G,2F,2E,2 | 
[V:1] (3:2:4A6G2F2E2 | 
[V:2] (3:2:2A8d4- | 
[V:3] [M:3/1](3d4d4d4 | 
[V:4] (3:2:1D,12 | 
[V:1] (3:2:2D8D4 | 
[V:2] (3d4G4G4 | 
[V:3] (3:2:2B8B4 | 
[V:4] (3:2:1z12 | 
[V:1] (3:2:2G8E4 | 
[V:2] (3E4E4A4- | 
[V:3] (3:2:4e6d2c2B2 | 
[V:4] (3:2:1z12 | 
[V:1] (3:2:2A8z4 | 
[V:2] (3:2:5A2G2F2E2D4 | 
[V:3] (3:2:1A12 | 
[V:4] (3F,4F,4F,4 | 
[V:1] (3F4F4F4 | 
[V:2] (3d4d4d4 | 
[V:3] (3:2:1z12 | 
[V:4] (3:2:2D,8D,4 | 
[V:1] (3D4D4G4 | 
[V:2] (3B4B4B4 | 
[V:3] (3:2:1z12 | 
[V:4] (3:2:4G,6F,2E,2D,2 | 
[V:1] (3:2:4G6F2E2D2 | 
[V:2] (3:2:1e12 | 
[V:3] (3c4c4c4 | 
[V:4] (3:2:2C,8z4 | 
[V:1] (3:2:2C8z4 | 
[V:2] (3z4z4A4 | 
[V:3] (3:2:2A8A4 | 
[V:4] (3:2:2F,8F,4 | 
[V:1] (3:2:2F8F4 | 
[V:2] (3B4A4d4 | 
[V:3] (3:2:4d6c2B2A2 | 
[V:4] (3:2:2D,8D,4 | 
[V:1] (3G6F2D4 | 
[V:2] (3:2:2B8B4 | 
[V:3] (3:2:2G8z4 | 
[V:4] (3E,6F,2G,4 | 
[V:1] (3:2:2E8z4 | 
[V:2] (3:2:2G8G4 | 
[V:3] (3:2:2c8c4 | 
[V:4] (3:2:1C,12 | 
[V:1] (3F4F4F4 | 
[V:2] (3:2:2F8D4 | 
[V:3] (3:2:2A8A4 | 
[V:4] (3:2:1z12 | 
[V:1] (3:2:2D8D4 | 
[V:2] (3:2:2G8G4 | 
[V:3] (3B6c2d4 | 
[V:4] (3:2:1z12 | 
[V:1] [M:2/1]E3FG4 | 
[V:2] [M:2/1]E4z2e2- | 
[V:3] [M:2/1]G8 | 
[V:4] [M:2/1]z4E,4 | 
[V:1] A4G2c2- | 
[V:2] e2d2e4 | 
[V:3] z8 | 
[V:4] F,4E,2A,2- | 
[V:1] cBG2A4 | 
[V:2] z2e4d2 | 
[V:3] z8 | 
[V:4] A,G,E,2F,4 | 
[V:1] G4z2G2 | 
[V:2] e4E2G2 | 
[V:3] z4B4 | 
[V:4] E,8- | 
[V:1] E3FG4 | 
[V:2] C3DE2C2 | 
[V:3] c4B2e2- | 
[V:4] E,8- | 
[V:1] z2G2E3F | 
[V:2] G4C4 | 
[V:3] edB2c4 | 
[V:4] E,8- | 
[V:1] G8 ||  
[V:2] G8 ||  
[V:3] B8 ||  
[V:4] E,8 ||  
[V:1]  [K:C] [K:clef=treble][M:3/1]F6E2D4 | 
[V:2]  [K:C] [K:clef=treble-8][M:3/1]z12 | 
[V:3]  [K:C] [K:clef=treble-8][M:3/1]z12 | 
[V:4]  [K:C] [K:clef=bass][M:3/1]z12 | 
[V:1] C3DEFG4^F2 | 
[V:2] c6B2A4 | 
[V:3] z12 | 
[V:4] z12 | 
[V:1] G2D2E2F2G4 | 
[V:2] G3ABcd4^c2 | 
[V:3] z12 | 
[V:4] G,6F,2E,4 | 
[V:1] F4A4B4 | 
[V:2] d2f4e2d4 | 
[V:3] d6c2B4 | 
[V:4] D,3E,F,G,A,4^G,2 | 
[V:1] c3BA2G2F4 | 
[V:2] c2F4G2A2B2 | 
[V:3] A3Bcde4d2 | 
[V:4] A,4z4z4 | 
[V:1] E2G3FG2A2c2 | 
[V:2] cBe3dcBA4 | 
[V:3] e4z4z4 | 
[V:4] E,4E,4F,4 | 
[V:1] B2G2z2G4E2 | 
[V:2] GABcd2G2z2G2 | 
[V:3] B4B4c4 | 
[V:4] G,8E,4 | 
[V:1] F2D4d4B2 | 
[V:2] A2B4G2d2ed | 
[V:3] d8B4 | 
[V:4] D,4G,8 | 
[V:1] c2A4F2A3B | 
[V:2] f6d2f4 | 
[V:3] A4d8 | 
[V:4] F,4D,8 | 
[V:1] c6B2A4 | 
[V:2] e2ABcde4A2 | 
[V:3] c4A8 | 
[V:4] A,6G,2F,4 | 
[V:1] G4z4A4 | 
[V:2] B2c4d2e2c2 | 
[V:3] e6d2c4 | 
[V:4] E,4A,8 | 
[V:1] B2G4G3FG2 | 
[V:2] d2e4c2B4 | 
[V:3] B4e8 | 
[V:4] G,4E,8 | 
[V:1] AGFED2G3FG2 | 
[V:2] A4z2G2d2e2 | 
[V:3] d4B8 | 
[V:4] F,4G,8 | 
[V:1] A2F2z2F3EF2 | 
[V:2] f3FF2_B2A4 | 
[V:3] c4d8 | 
[V:4] F,4D,8 | 
[V:1] GFEDC2c3BA2- | 
[V:2] G4z2F2c2d2 | 
[V:3] c4A8 | 
[V:4] E,4F,8 | 
[V:1] A2G2A2G3FE2- | 
[V:2] e8E2G2 | 
[V:3] B4c8 | 
[V:4] E,4C,8 | 
[V:1] EDD4G4FE | 
[V:2] F2D2B4c4 | 
[V:3] B4G8 | 
[V:4] D,4E,8 | 
[V:1] F3DD2d4B2 | 
[V:2] d4G4z2g2 | 
[V:3] A4B8 | 
[V:4] D,4z4G,4 | 
[V:1] c3AB2A4G2 | 
[V:2] e2a2g2f3ed2 | 
[V:3] A4z4d4 | 
[V:4] A,2F,2G,2A,2_B,4 | 
[V:1] A2E2F2E4D2 | 
[V:2] c4z4z4 | 
[V:3] e2c2d2e2f4 | 
[V:4] A,4z2G,2A,2=B,2 | 
[V:1] E2c2B2d2c2A2 | 
[V:2] A4B4c4 | 
[V:3] e4z2d2e2f2 | 
[V:4] C3B,G,2B,2A,4 | 
[V:1] B2d3cA2B2c2 | 
[V:2] d4z4z4 | 
[V:3] g3fd2f2e4 | 
[V:4] G,4z2F,2G,2A,2 | 
[V:1] d3cA2c2B4 | 
[V:2] G4A4B4 | 
[V:3] d4z2c2d2e2 | 
[V:4] _B,3A,F,2A,2G,4 | 
[V:1] A2c3BG2A2B2 | 
[V:2] c4z4z4 | 
[V:3] f3ec2e2d4 | 
[V:4] F,4z2E,2F,2G,2 | 
[V:1] c3BG2B2A4 | 
[V:2] F4G4A4 | 
[V:3] c4z2B2c2d2 | 
[V:4] A,3G,E,2G,2F,4 | 
[V:1] G4z2F2G2A2 | 
[V:2] B2c2d2f2e2A2 | 
[V:3] e3dB2d2c4 | 
[V:4] E,4z2D,2E,2F,2 | 
[V:1] D4A4G4 | 
[V:2] z2d3cd2e2G2 | 
[V:3] B4z2A2B2c2 | 
[V:4] G,3F,D,2F,2E,4 | 
[V:1] F2A3GE2F2G2 | 
[V:2] A3Bcde2d2G2 | 
[V:3] d3cA2c2B4 | 
[V:4] D,4z2C,2D,2E,2 | 
[V:1] A3GFEF4ED | 
[V:2] c4d8 | 
[V:3] A12- | 
[V:4] F,3E,D,C,D,4C,B,, | 
[V:1] C12 |]  
[V:2] e12 |]  
[V:3] A12 |]  
[V:4] A,,12 |]  



